X:1
T:Polka
C:traditionell
R:Polka
A:Bayern
%%textfont Helvetica-Narrow 10pt
%%begintext align
B:"Arbeitshilfen zur Volksmusikpflege, nr. 8: Wildsau - Hundert Tanzmelodien fuer Dudelsack und Drehleier", ausgewaehlt und eingerichtet von Georg Balling, herausgegeben vom Bayerischen Landesverein fuer Heimatpflege e.V., Muenchen, 1993
S:im buch mit der angabe: Bayerischen Landesverein fuer Heimatpflege e.V.(Hrsg.) 'Lied, Musik, Tanz in Bayern', nr. 26, Muenchen 1986
N:im buch ganz in F, zweistimmig, nr. 46, in der quelle nr. 236
%%endtext
Z:abc transcription Simon Wascher
M:2/4
L:1/16
K:F
C2 |\
A2A2A2 Ad | c6 BA | A3G G2AG | G3F F2CF |
A2A2A2 Ad | c6 BA | A2G2 A3G | F2F2F2 :|
%%wordsfont Times-Italic 11pt
W:aus Simon Waschers TradArchiv



